svgs/sharp-light/lock-a.svg

<svg xmlns="http://www.w3.org/2000/svg" viewBox="0 0 448 512"><!--! Font Awesome Pro 6.6.0 by @fontawesome - https://fontawesome.com License - https://fontawesome.com/license (Commercial License) Copyright 2024 Fonticons, Inc. --><path d="M128 128l0 64 192 0 0-64c0-53-43-96-96-96s-96 43-96 96zM96 192l0-64C96 57.3 153.3 0 224 0s128 57.3 128 128l0 64 64 0 32 0 0 32 0 256 0 32-32 0L32 512 0 512l0-32L0 224l0-32 32 0 64 0zM32 480l384 0 0-256L32 224l0 256zm232.7-80l-81.5 0-21.9 48-35.2 0 1.2-2.6 82-180 4.3-9.4 20.6 0 4.3 9.4 82 180 1.2 2.6-35.2 0-21.9-48zm-14.6-32L224 310.6 197.8 368l52.3 0z"/></svg>

<svg xmlns="http://www.w3.org/2000/svg" viewBox="0 0 448 512"><!--! Font Awesome Pro 6.4.0 by @fontawesome - https://fontawesome.com License - https://fontawesome.com/license (Commercial License) Copyright 2023 Fonticons, Inc. --><path d="M128 128v64H320V128c0-53-43-96-96-96s-96 43-96 96zM96 192V128C96 57.3 153.3 0 224 0s128 57.3 128 128v64h64 32v32V480v32H416 32 0V480 224 192H32 96zM32 480H416V224H32V480zm232.7-80H183.3l-21.9 48H126.2l1.2-2.6 82-180 4.3-9.4h20.6l4.3 9.4 82 180 1.2 2.6H286.6l-21.9-48zm-14.6-32L224 310.6 197.8 368h52.3z"/></svg>
